X:1
T:Jouyssance vous donneray
T:Geert van Turnhout
T:Source : La fleur des chansons à 3---Louvain---P.Phalèse---1574. Editor : André Vierendeels (06/09/18) Notes : Original clefs : G2, C1, C3 Original note values have been halved Editorial accidentals above the staff Square brackets indicate ligatures
T:Jouyssance vous donneray
T:©
T:©
T:©
T:©
T:©
T:©
C:Geert van Turnhout
Z:©
%%score [ 1 2 3 ]
L:1/8
Q:1/4=120
M:2/2
K:F
V:1 treble nm="Soprano 1" snm="S 1"
V:2 treble nm="Soprano 2" snm="S 2"
V:3 treble-8 nm="Tenor" snm="T"
V:1
 G4 G2 B2 | A2 G2 B4- | B2 c2 d3 e | f2 g3 f/e/de | fd g4 f2- | f2 e2 f4- | f8- | f4 z2 c2 | %8
w: Jou- ys- san-|ce vous don-|* ne- ray, _|_ vous _ _ _ _|_ _ _ don-|* ne- ray,|_|* mon|
 d2 e2 f2 d2 |"^b""^b" e2 e2 d4- | d4 z2 d2 | d4 c2 d2 | d2 cB A2 FG | AB c3 B B2- | B2 A2 B4 | %15
w: a- my, et vous|me- ne- ray,|_ mon|a- my, et|vous _ _ _ me- *||* ne- ray|
 z2 f2 f4 | e4 d2 f2 | f2 e2 ed d2- | d2 c2 d4- | d4 z4 | z4 f4 | f4 e4 | d2 d4 A2 | c2 GA Bcde | %24
w: à bon-|ne fin vo-|str'e- spe- ran- * *|* * ce,|_|à|bon- ne|fin vo- str'e-|spe- ran- * * * * *|
 fg a3 g g2- |"^#" g2 f2 g4- | g8 | z4 z2 d2 | d2 g2 f2 d2 | f2 e3 d d2- | d2 c2 d4- | d4 z4 | %32
w: |* * ce,|_|vi-|vant, vous ne lais-|se- * * *|* * ray,|_|
 z2 G2 G2 c2 | B2 G2 B3 c | d3 c/B/ A2 d2 | d2 c2 d4- | d4 z4 | z8 | z2 d2 _e2 e2 | d4 z2 d2 | %40
w: vi- vant, vous|ne lais- se- *||* * ray,|_||en- cor quand|mort, en-|
 d2 c2 f4- | f2 e2 d2 cB | c4 B2 G2- | G2 G2 A4 | B2 c3 B B2- | B2 A2 B4 | z2 f2 f4 | e4 d2 f2 | %48
w: cor quand mort|_ se- * * *|* * ray,|_ en cor|quand mort _ _|_ se- ray,|l'e- sprit|en au- ra|
 f2 e3 d d2- | d2 c2 d2 d2 | d4 c4 | B4 f4 | f4 e4 | d2 d4 A2 | c2 GA Bcde | fg a4 g2- | %56
w: sou- ve- * nan-|* * ce, l'e-|sprit en|au- ra|sou- ve-|nan- ce, sou-|ve nan- * * * * *|* * ce, sou-|
 gg f2 g2 g2 | d2 f4 ed | e2 d3 d c2 | B2 AG A4 | B4 z2 _e2- | e2 d2 _e4 | d8 |] %63
w: * ve- nan- ce, sou-|ve- nan- * *|* ce, sou- ve-|nan- * * *|ce, sou-|* ve- nan-|ce.|
V:2
 z4 z2 D2 | D2 _E2 D4 | z2 G2 G2 B2 | A2 G2 B4 | c2 d4 B2 | A2 G2 F4- | F4 z2 A2 | AGAB c4 | %8
w: Jou-|ys- san- ce|iou- ys- san-|ce vous don-|ne- ray, vous|don- ne- ray,|_ mon|a- * * * *|
 A2 c3 c B2- | B2 A2 B4 | G2 GF GA B2 | F2 G3 F F2- | FE/D/ E2 FGAB | c2 c2 d2 d2 | c4 z2 B2 | %15
w: my, et vous me-|* ne ray,|mon a- * * * *|my, et vous me-|* * * ne- ray _ _ _|_ vous me- ne-|ray à|
 B4 A4 | G2 G2 B2 A2- | A2 G3 FED | E4 D4 | z2 F2 F4 | E4 D4 | z2 A2 A2 G2- | G2 F4 A2- | %23
w: bon- ne|fin vo- str'e- spe-|* ran- * * *|* ce,|à bon-|ne fin,|bon- ne fin|_ vo- str'e-|
 AA E2 G2 D2 | D3 D B4 | A4 G4 | z4 D4 | D2 G2 F2 D2 | F2 G2 A2 z D | D2 G2 F2 D2 | E2 E2 D2 B2- | %31
w: * spe- ran- * ce,|e- spe- ran-|* ce,|vi-|vant, vous ne lais-|se- * ray, vi-|vant, vous ne lais-|se- ray, ne lais-|
 BA G2 FD G2- | GF/E/ D2 E G2 ^F | G4 D4 | D2 G2 F2 D2 | E2 E2 D2 A2- | A2 A2 B2 c2- | %37
w: |* * * * * * se-|ray, vi-|vant, vous ne lais-|se- ray, en cor|_ quand mort se-|
 cBAG AB c2- | cB B4 A2 | B2 F4 F2 | G2 A3 GFE | D2 A3 G G2- | G2 F2 G2 d2 | d2 e2 f4- | %44
w: ||ray, en- cor|quand mort _ _ _|_ se- * *|* * ray, en-|cor quand mort|
 f2 e2 d2 cB | c4 z2 B2 | B4 A4 | GFGA B2 A2- | A2 G2 GFED | E4 D2 F2- | F2 F4 E2- | E2 D3 EFG | %52
w: _ se- * * *|ray, l'e-|sprit en|au- * * * * ra|_ sou- ve- * * *|nan- ce, l'e-|* sprit en|_ au- * * *|
 A2 A2 A2 G2- | G2 F4 A2- | A2 E2 G2 D2 | D3 D B4 | A4 G4 | z2 d2 A2 c2 | G2 B4 A2- | A2 G4 F2 | %60
w: ra sou- ve- nan-|* * ce,|_ en au- ra|sou- ve- nan-|* ce,|sou- ve- nan-|ce, sou- ve-|* nan- *|
 G8- | G8- | G8 |] %63
w: ce.|_||
V:3
 z8 | z4 G4 | G2 c2 G4 | z2 G2 G2 B2 | A2 G2 B4 | c4 d4 | z2 d2 dcde | f4 e2 f2- | f2 e2 d2 cB | %9
w: |Jou-|ys- san- ce,|iou- ys- san-|ce vous don-|ne- ray,|mon a- * * *|* * my,|_ et vous _ _|
 c2 c2 B4 | z2 G2 GFGA | B4 A2 GF | G2 G2 F4 | z2 f2 d2 B2 | f2 f2 d2 _e2 | B4 z4 | z4 z2 d2 | %17
w: me- ne- ray,|mon a- * * *|my, mon _ _|_ a- my,|vous me- ne-|ray à bon- ne|fin|vo-|
 A2 c2 G3 F | G2 A2 z2 B2 | B4 A4 | G4 z2 d2 | d4 c4 | B4 d4 | A2 c2 GABc | defd g4 | d4 z2 G2 | %26
w: str'e- spe- ran- *|* ce, à|bon- ne|fin, à|bon- ne|fin vo-|str'e- spe- ran- * * *||ce, vi-|
 G2 c2 B2 G2 | B2 c2 d2 f2 | B2 _e2 d4 | z4 z2 G2 | G2 c2 B2 G2 | B3 c d2 _e2- | ed/c/ B2 c2 A2 | %33
w: vant, vous ne lais-|se- ray, ne lais-|* se- ray,|vi-|vant, vous ne lais-|* se- ray, ne|_ _ _ _ lais- se-|
 G4 z2 G2 | B3 c d2 B2 | A2 A2 D4 | d4 d2 e2 | f6 e2 | d2 cB c4 | B4 B4 | B2 c2 d4- | d2 c2 B2 AG | %42
w: ray, ne|lais- se- ray, ne|lais- se- ray,|en- cor quand|mort se-||ray, en-|cor quand mort|_ se- * * *|
 A4 G4- | G4 z2 d2 | d2 e2 f2 g2 | f2 f2 d2 _e2 | B4 z4 | z4 z2 d2 | A2 c2 G3 F | G2 A2 z2 B2 | %50
w: * ray,|_ en-|cor quand mort se-|ray, l'e- sprit au-|ra,|en|sou- ve- nan- *|* ce, l'e-|
 B4 A4 | G4 z2 d2 | d4 c4 | B4 d4 | A2 c2 GABc | defd g3 f | d4 z2 g2- | g2 d2 f2 c2- | %58
w: sprit au-|ra, l'e-|sprit au-|ra en|sou- ve nan- * * *||ce, l'e-|* sprit au- ra|
 c2 g2 d2 f2 | g2 e2 d4 |"^#" G2 _e3 d c2- | c2 B2 c4 | G8 |] %63
w: _ en sou- ve-|nan- ce, en|sou- ve- * *|* * nan-|ce.|

